X:175
T:Mississippi Sawyer
R:Reel
M:2/4
L:1/16
K:D
fg|a2af a2af|a2af abaf|g2ge g2ge|g2ge gage|
f2fe defe|defg a2ag|fedf edce|d2f2 d2:|
|:dB|Adfd Adfd|Adfg abaf|Acec Acec|Acef gage|
Adfd Adfd|Adfg abag|fedf edce|d2f2 d2:|
